!!!!SEGMENT: 066-1-Sam.krn
!!!COM: Fryderyk Chopin
!!!OTL: FANTAISIE_IMPROMPTU
!!!OPS: Op. 66
!!!PTL: Œuvres posthumes. Livr. I.
!!!PPR: A. M. Schlesinger (Lienau)
!!!PPP: Berlin
!!!NIFC-rismID: 1001015050
!!!NIFC-shelfmark: PL-Wbfc 4376/n
!!!OMD: Allegro agitato.
!!!OMD: M.M. [half note] = 84.
**kern	**kern	**dynam
*part1	*part1	*part1
*	*I"PIANO.	*
*staff2	*staff1	*
*clefF4	*clefG2	*
*k[f#c#g#d#]	*k[f#c#g#d#]	*
*c#:	*c#:	*
*M2/2	*M2/2	*
*met(c|)	*met(c|)	*
=1	=1	=1
!	!	!LO:DY:rj
*ped	*	*
[>1G# [<1GG#	1rdd	sf
=2	=2	=2
1G#] 1GG#]	1rdd	.
*Xped	*	*
.	.	.
=3	=3	=3
*ped	*	*
!LO:TX:a:t=P:note-head-side tuplet number:problem	!	!
!LO:S:s=2:note:problem:note-level slur	!	!
(<12C#/ 8CC#/L	1rdd	.
12G#	.	.
.	.	.
12c#	.	.
12e	.	.
12c#	.	.
12G#J)	.	.
!LO:TX:a:t=P:note-head-side tuplet number:problem	!	!
(>\12C#L	.	.
12G#	.	.
12c#	.	.
12e	.	.
12c#	.	.
12G#J)	.	.
=4	=4	=4
!LO:TX:a:t=P:note-head-side tuplet number:problem	!	!
(>\12C#L	1rdd	.
12G#	.	.
12c#	.	.
12e	.	.
12c#	.	.
12G#J)	.	.
!LO:TX:a:t=P:note-head-side tuplet number:problem	!	!
(>\12C#L	.	.
12G#	.	.
12c#	.	.
12e	.	.
12c#	.	.
12G#J)	.	.
!!LO:LB:g=original
=5	=5	=5
!LO:TX:a:t=P:note-head-side tuplet number:problem	!	!
(>12C#L	16r	p
.	(>/16g#LL	.
12G#	.	.
.	16a	.
12c#	.	.
.	16g#JJ	.
12e	16f##X\LL	.
.	16g#	.
12c#	.	.
.	16cc#	.
12G#J)	.	.
.	16eeJJ	.
!LO:TX:a:t=P:note-head-side tuplet number:problem	!	!
(>12EL	16dd#\LL	.
.	16cc#	.
12G#	.	.
.	16dd#	.
12c#	.	.
.	16cc#JJ	.
12e	16b#X\LL	.
.	16cc#	.
12c#	.	.
.	16ee	.
12G#J)	.	.
.	16gg#JJ)	.
=6	=6	=6
!LO:TX:a:t=P:note-head-side tuplet number:problem	!	!
(>12C#L	16r	.
.	(>/16g#LL	.
12G#	.	.
.	16a	.
12c#	.	.
.	16g#JJ	.
12e	16f##X\LL	.
.	16g#	.
12c#	.	.
.	16cc#	.
12G#J)	.	.
.	16eeJJ	.
*Xtuplet	*	*
(>12EL	16dd#\LL	.
.	16cc#	.
12G#	.	.
.	16dd#	.
12c#	.	.
.	16cc#JJ	.
12e	16b#X\LL	.
.	16cc#	.
12c#	.	.
.	16ee	.
*Xped	*	*
12G#J)	.	.
.	16gg#JJ)	.
=7	=7	=7
*ped	*	*
(>12D#L	16r	.
.	(>\16aLL	<
12A	.	.
.	16cc#	.
12c#	.	.
.	16dd#JJ	.
12f#	16ff#\LL	.
.	16aa	.
12c#	.	.
.	16ccc#	.
12AJ)	.	.
.	16ddd#JJ)	[
*	*8va	*
(>12F#L	16bbb\LL	>
.	16aaa	.
12c#	.	.
.	16ggg#	.
12d#	.	.
.	16fff#JJ	.
12a	16eee\LL	.
.	16ddd#	.
12d#	.	.
.	16fff#	.
12c#J)	.	.
*Xped	*	*
.	16ccc#JJ	]
*	*X8va	*
!!LO:LB:g=original
=8	=8	=8
*ped	*	*
(>12GG#L	(>16bb#X\LL	.
.	16ddd#	.
12D#	.	.
.	16aa	.
12F#	.	.
.	16gg#JJ	.
.	.	>
12B#X	16ff#\LL	.
.	16aa	.
12F#	.	.
.	16ee	.
12D#J)	.	.
.	16dd#JJ	.
(>12GG#L	16ff#\LL	.
.	16cc#	.
12D#	.	.
.	16b#X	.
12F#	.	.
.	16dd#JJ	.
12B#	16a\LL	.
.	16g#	]
12F#	.	.
.	16bn	.
*Xped	*	*
12D#J)	.	.
.	[>16aJJ)	.
=9	=9	=9
*ped	*	*
(>12C#L	(>16a\LL]	.
.	16g#	.
12G#	.	.
.	16a	.
12c#	.	.
.	16g#JJ	.
12e	16f##X\LL	.
.	16g#	.
12c#	.	.
.	16cc#	.
12G#J)	.	.
.	16eeJJ	.
(>12EL	16dd#\LL	.
.	16cc#	.
12G#	.	.
.	16dd#	.
12c#	.	.
.	16cc#JJ	.
12e	16b#X\LL	.
.	16cc#	.
12c#	.	.
.	16ee	.
*Xped	*	*
12G#J)	.	.
.	16gg#JJ)	.
=10	=10	=10
*ped	*	*
(>12C#L	16r	.
.	(>16g#/LL	.
12G#	.	.
.	16a#X	.
12A#X	.	.
.	16g#JJ	.
12e	16f##X\LL	.
.	16g#	.
12A#	.	.
.	16cc#	.
*Xped	*	*
12G#J)	.	.
.	16eeJJ	.
*ped	*	*
(>12EL	16dd#\LL	.
.	16cc#	.
12G#	.	.
.	16dd#	.
12A#	.	.
.	16cc#JJ	.
12c#	16b#X\LL	.
.	16cc#	.
12A#	.	.
.	16ee	.
12G#J)	.	.
*Xped	*	*
.	16gg#JJ)	.
!!LO:LB:g=original
=11	=11	=11
*ped	*	*
!	!LO:TX:t=cres. _:problem:dynamics with extention lines 	!
!	!	!LO:HP:i:t=cres.
(>12D#\L	(>16dd#\LL	<
.	16ee	.
12G#	.	.
.	16dd#	.
12B	.	.
.	16cc##XJJ	.
12d#	16dd#\LL	.
.	16bb	.
12B	.	.
.	16aa#X	.
*Xped	*	*
12G#J)	.	.
.	16gg#JJ)	.
*ped	*	*
(>12D#\L	16ff##X\LL	.
.	(>16eee	.
12A#X	.	.
.	16ddd#	.
12c#	.	.
.	16ccc#XJJ	.
12f##X	16bb\LL	.
.	16aa#	.
12c#	.	.
.	16gg#	.
*Xped	*	*
12A#J)	.	.
.	16ff##JJ)	[[
=12	=12	=12
*	*	*^
*ped	*	*	*
(>12GG#\L	(>16aa#X\LL	>	>
.	16gg#	.	.
12D#	.	.	.
.	16bb	.	.
12G#	.	.	.
.	16cc##XJJ)	.	]
12B	(>16ee\LL	>	.
.	16dd#	.	.
12G#	.	.	.
.	16gg#	.	.
*Xped	*	*	*
12D#J)	.	.	.
.	16a#XJJ)	]	.
*ped	*	*	*
(>12GG#\L	(<16cc#X/LL	>	.
.	16b	.	.
12D#	.	.	.
.	16dd#	.	.
12G#	.	.	.
.	16f##XJJ)	]	.
12B	(<16a#/LL	>	.
.	16g#	.	.
12G#	.	.	.
.	16f##	.	.
*Xped	*	*	*
12D#J)	.	.	.
.	16g#JJ)	]	.
*	*	*v	*v
!!LO:PB:g=original
=13	=13	=13
*ped	*	*
!	!	!LO:DY:rj
(>12AA\L	(>16g#^<\LL	f
.	16gg#	.
12C#	.	.
.	16b#X	.
12F#	.	.
.	16cc#JJ)	.
12A	(>16f#^<\LL	.
.	16ff#	.
12F#	.	.
.	16b#	.
12C#J)	.	.
.	16cc#JJ)	.
(>12AA\L	(>16e#X^<\LL	.
.	16ee#X	.
12C#	.	.
.	16b#	.
12F#	.	.
.	16cc#JJ)	.
12A	(>16f#^<\LL	.
.	16ff#	.
12F#	.	.
.	16b#	.
*Xped	*	*
12C#J)	.	.
.	16cc#JJ)	.
=14	=14	=14
*ped	*	*
(>12BB\L	(<16c#^<\LL>	.
.	16cc#	.
12F#	.	.
.	16f#	.
12A	.	.
.	16aJJ)	.
12B	(<16d#^<\LL>	.
.	16dd#	.
12A	.	.
.	16f#	.
*Xped	*	*
12F#J)	.	.
.	16aJJ)	.
*ped	*	*
(>12EE\L	(<16e^<\LL>	.
.	16ee	.
12BB	.	.
.	16g#	.
12E	.	.
.	16bJJ)	.
12G#	(>16g#^<\LL	.
.	16gg#	.
12E	.	.
.	16b	.
*Xped	*	*
12BBJ)	.	.
.	16eeJJ)	.
=15	=15	=15
*ped	*	*
(>12AA\L	(>16g#^<\LL	.
.	16gg#	.
12C#	.	.
.	16b#X	.
12F#	.	.
.	16cc#JJ)	.
12A	(>16f#^<\LL	.
.	16ff#	.
12F#	.	.
.	16b#	.
12C#J)	.	.
.	16cc#JJ)	.
(>12AA\L	(>16e#X^<\LL	.
.	16ee#X	.
12C#	.	.
.	16b#	.
12F#	.	.
.	16cc#JJ)	.
12A	(>16f#^<\LL	.
.	16ff#	.
12F#	.	.
.	16b#	.
12C#J)	.	.
*Xped	*	*
.	16cc#JJ)	.
!!LO:LB:g=original
=16	=16	=16
*ped	*	*
(>12BB\L	(>16e#X\LL	.
.	16ee#X	.
12D#	.	.
.	16bn	.
12A	.	.
.	16dd#JJ)	.
12B	(>16f#\LL	.
.	16ff#	.
12A	.	.
.	16b	.
*Xped	*	*
12D#J)	.	.
.	16dd#JJ)	.
*ped	*	*
(>12EE\L	(>16a\LL	.
.	16aa	.
12BB	.	.
.	16b	.
12E	.	.
.	16eenyJJ)	.
12G#	(>16g#\LL	.
.	16gg#	.
12E	.	.
.	16b	.
12BBJ)	.	.
*Xped	*	*
.	16eeJJ)	.
=17	=17	=17
*ped	*	*
(>12AA\L	16g#\LL	p
.	16gg#^>	.
12C#	.	.
.	16b#X	.
12F#	.	.
.	16cc#JJ	.
12A	16f#\LL	.
.	16ff#^>	]
12F#	.	.
.	16b#	.
12C#J)	.	.
.	16cc#JJ	.
(>12AA\L	16e#X\LL	.
.	16ee#X^>	.
12C#	.	.
.	16b#	.
12F#	.	.
.	16cc#JJ	.
12A	16f#\LL	.
.	16ff#^>	.
12F#	.	.
.	16b#	.
*Xped	*	*
12C#J)	.	.
.	16cc#JJ	.
=18	=18	=18
*ped	*	*
(>12BB\L	16c#\LL>	.
.	16cc#^>	.
12F#	.	.
.	16f#	.
12A	.	.
.	16aJJ	.
12B	16d#\LL>	.
.	16dd#^>	.
12A	.	.
.	16f#	.
*Xped	*	*
12F#J)	.	.
.	16aJJ	.
*ped	*	*
(>12EE\L	16e\LL>	.
.	16ee^>	.
12BB	.	.
.	16g#	<
12E	.	.
.	16bJJ	.
12G#	16g#\LL	.
.	16gg#^>	.
12E	.	.
.	16b	.
12BBJ)	.	.
*Xped	*	*
.	16eeJJ	.
!!LO:LB:g=original
=19	=19	=19
*ped	*	*
(>12AAL	16g#LL	.
.	16gg#^>	.
12C#	.	.
.	16b#X	.
12F#	.	.
.	16cc#JJ	.
12A	16f#LL	.
.	16ff#^>	.
12F#	.	.
.	16b#	.
*Xped	*	*
12C#J)	.	.
.	16cc#JJ	.
*ped	*	*
(>12AAL	16dd#LL	f
.	16ddd#^>	>
12D#	.	.
.	16ff#	.
12F#	.	.
.	16aaJJ	.
12A	16cc#LL	.
.	16ccc#^>	.
12F#	.	.
.	16ff#	.
12D#J)	.	.
*Xped	*	*
.	16aaJJ	]
=20	=20	=20
*ped	*	*
(>12GG#L	16cc#LL	.
.	16ccc#^>	.
12D#	.	.
.	16dd#	.
12F#	.	.
.	16ff#JJ	.
12B#X	16b#XLL	.
.	16bb#X^>	.
12F#	.	.
.	16dd#	.
12D#J)	.	.
.	16ff#JJ	.
(>12GG#L	16b#LL	.
.	16bb#^>	.
12D#	.	.
.	16dd#	.
12F#	.	.
.	16ff#JJ	.
12B#	16b#LL	.
.	16bb#^>	.
12F#	.	.
.	16dd#	.
*Xped	*	*
12D#J)	.	.
.	16ff#JJ	.
=21	=21	=21
*ped	*	*
(>12AAL	16ccnLL	.
.	16cccn^>	.
12D#	.	.
.	16dd#	.
12F#	.	.
.	16ff#JJ	.
12Bn	16bnyLL	.
.	16bb^>	.
12F#	.	.
.	16dd#	.
*Xped	*	*
12D#J)	.	.
.	16ff#JJ	.
*ped	*	*
(>12AA#XL	16bLL	.
.	16bb^>	.
12D#	.	.
.	16dd#	.
12F#	.	.
.	16ff#JJ	.
12A#X	16a#XLL	.
.	16aa#X^>	.
12F#	.	.
.	16dd#	.
12D#J)	.	.
*Xped	*	*
.	16ff#JJ	.
!!LO:LB:g=original
=22	=22	=22
*ped	*	*
(>12BB#X\L	16a#XLL	.
.	16aa#X	.
12D#	.	.
.	16dd#	.
12F#	.	.
.	16ff#JJ	.
12An	16anLL	.
.	16aan	.
12F#	.	.
.	16dd#	.
12D#J)	.	.
.	16ff#JJ	.
(>12BB#\L	16aLL	.
.	16aa	.
12D#	.	.
.	16dd#	.
12F#	.	.
.	16ff#JJ	.
12A	16aLL	.
.	16aa	.
12F#	.	.
.	16dd#	.
*Xped	*	*
12D#J)	.	.
.	16ff#JJ	.
=23	=23	=23
*ped	*	*
(>12AA\L	(>16ccnLL	pp
.	16cccn	.
12D#	.	.
.	16dd#X	.
12F#	.	.
.	16ff#JJ)	.
12Bn	(>16bLL	.
.	16bb	.
12F#	.	.
.	16dd#	.
*Xped	*	*
12D#J)	.	.
.	16ff#JJ)	.
*ped	*	*
(>12AA#X\L	(>16bLL	.
.	16bb	.
12D#	.	.
.	16dd#	.
12F#	.	.
.	16ff#JJ)	.
12A#X	(>16a#XLL	.
.	16aa#X	.
12F#	.	.
.	16dd#	.
12D#J)	.	.
*Xped	*	*
.	16ff#JJ)	.
=24	=24	=24
*ped	*	*
(>12BBny\L	(>16a#XLL	.
.	16aa#X	.
12D#	.	.
.	16dd#	.
12F#	.	.
.	16ff#JJ)	.
12An	(>16anLL	.
.	16aan	.
12F#	.	.
.	16dd#	.
*Xped	*	*
12D#J)	.	.
.	16ff#JJ)	.
*ped	*	*
!	!LO:TX:i:t=riten. _:dur=2q:ext=ud:problem:text with extention lines	!
(>12BB#\L	(>16aLL	.
.	16aa	.
12D#	.	.
.	16dd#	.
12F#	.	.
.	16ff#JJ)	.
12G#	(>16g#LL	.
.	16gg#	.
12F#	.	.
.	16dd#	.
12D#J)	.	.
*Xped	*	*
.	16ff#JJ)	.
!!LO:LB:g=original
=25	=25	=25
*ped	*	*
!	!LO:TX:a:B:t=a tempo.	!
(>12C#L	16r	.
.	(>\16g#LL>	p
12G#	.	.
.	16a	.
12c#	.	.
.	16g#JJ	.
12e	16f##X\LL	.
.	16g#	.
12c#	.	.
.	16cc#	.
12G#J)	.	.
.	16eeJJ	.
(>12EL	16dd#\LL	.
.	16cc#	.
12G#	.	.
.	16dd#	.
12c#	.	.
.	16cc#JJ	.
12e	16b#X\LL	.
.	16cc#	.
12c#	.	.
.	16ee	.
12G#J)	.	.
.	16gg#JJ)	.
=26	=26	=26
(>12C#L	16r	.
.	(>\16g#LL>	.
12G#	.	.
.	16a	.
12c#	.	.
.	16g#JJ	.
12e	16f##X\LL	.
.	16g#	.
12c#	.	.
.	16cc#	.
12G#J)	.	.
.	16eeJJ	.
*Xtuplet	*	*
(>12EL	16dd#\LL	.
.	16cc#	.
12G#	.	.
.	16dd#	.
12c#	.	.
.	16cc#JJ	.
12e	16b#X\LL	.
.	16cc#	.
12c#	.	.
.	16ee	.
*Xped	*	*
12G#J)	.	.
.	16gg#JJ)	.
=27	=27	=27
*ped	*	*
(>12D#L	16r	.
.	(>\16aLL	.
12A	.	.
.	.	<
.	16cc#	.
12c#	.	.
.	16dd#JJ	.
12f#	16ff#\LL	.
.	16aa	.
12c#	.	.
.	16ccc#	.
12AJ)	.	.
.	16ddd#JJ	[
*	*8va	*
(>12F#L	16bbb\LL	>
.	16aaa	.
12c#	.	.
.	16ggg#	.
12d#	.	.
.	16fff#JJ	.
12a	16eee\LL	.
.	16ddd#	.
12d#	.	.
.	16fff#	.
12c#J)	.	.
.	16ccc#JJ)	]
*	*X8va	*
!!LO:PB:g=original
=28	=28	=28
*ped	*	*
(>12GG#L	(>16bb#X\LL	.
.	16ddd#	.
12D#	.	.
.	16aa	.
12F#	.	.
.	16gg#JJ	.
12B#X	16ff#\LL	.
.	16aa	.
12F#	.	.
.	16ee	.
12D#J)	.	.
.	16dd#JJ	.
(>12GG#L	16ff#\LL	.
.	16cc#	.
12D#	.	.
.	16b#X	.
12F#	.	.
.	16dd#JJ	.
12B#	16a\LL>	.
.	16g#	.
12F#	.	.
.	16bn	.
*Xped	*	*
12D#J)	.	.
.	[<16aJJ)	.
=29	=29	=29
*ped	*	*
(>12C#L	(>16a\LL>]	.
.	16g#	.
12G#	.	.
.	16a	.
12c#	.	.
.	16g#JJ	.
12e	16f##X\LL	.
.	16g#	.
12c#	.	.
.	16cc#	.
*Xped	*	*
12G#J)	.	.
.	16eeJJ	.
!	!LO:TX:t=cres _:problem:dynamics with extention lines 	!
!	!	!LO:HP:i:t=cres
*ped	*	*
(>12EL	16dd#\LL	<
.	16cc#	.
12G#	.	.
.	16dd#	.
12c#	.	.
.	16cc#JJ	.
12e	16b#X\LL	.
.	16cc#	.
12c#	.	.
.	16ee	.
*Xped	*	*
12G#J)	.	.
.	16gg#JJ)	.
=30	=30	=30
*ped	*	*
(>12F#L	(>16eeLL	.
.	16dd#	.
12c#	.	.
.	16ee	.
12d#	.	.
.	16dd#JJ	.
12a	16cc##XLL	.
.	16dd#	.
12d#	.	.
.	16ff#	.
*Xped	*	*
12c#J)	.	.
.	16aaJJ)	.
*ped	*	*
(<\12G#L>	(>16ff#LL	.
.	16ee#X	.
12c#	.	.
.	16ff#	.
*clefG2	*	*
12e#X	.	.
.	16ee#JJ	.
12b	16dd##XLL	.
.	16ee#	.
12e#	.	.
.	16gg#	.
12c#J)	.	.
*Xped	*	*
.	16ccc#XJJ)	.
!!LO:LB:g=original
=31	=31	=31
(</12AL	16r	.
.	(>16cc#LL	.
12c#	.	.
.	16ddn	.
12f#	.	.
.	16cc#JJ	.
12a	16b#XLL	.
.	16cc#	.
12f#	.	.
.	16ff#	.
12c#J)	.	.
.	16aaJJ)	.
(</12G#L	(>16ff#LL	.
.	16ee#X	.
12c#	.	.
.	16ff#	.
12e#X	.	.
.	16ee#JJ	.
12b	16dd##XLL	.
.	16ee#	.
12e#	.	.
.	16gg#	.
12c#J)	.	.
.	16ccc#JJ)	[
=32	=32	=32
!	!LO:TX:i:t=sempre	!
*ped	*	*
(</12AL	(>16gg#LL	.
.	16ff#	.
12c#	.	.
.	16gg#	.
12f#	.	.
.	16ff#JJ	.
!	!LO:TX:t=cres _:problem:dynamics with extention lines 	!
!	!	!LO:HP:i:t=cres
12a	16ee#XLL	<
.	16ff#	.
12f#	.	.
.	16aa	.
12c#J)	.	.
*Xped	*	*
.	16ccc#JJ)	.
*clefF4	*	*
*ped	*	*
(>\12BB#XL	(>16aaLL	.
.	16gg#	.
12F#	.	.
.	16aa	.
12G#	.	.
.	16gg#JJ	.
12d#	16ff##XLL	.
.	16gg#	.
12G#	.	.
.	16bb#X	.
12F#J)	.	.
*Xped	*	*
.	16ddd#JJ)	.
=33	=33	=33
*ped	*	*
(>\12C#L	(>16gg#LL	.
.	16aa	.
12G#	.	.
.	16gg#	.
12c#	.	.
.	16ff##JJ	.
12e	16gg#LL	.
.	16eee^>	.
12c#	.	.
.	16ddd#	.
*Xped	*	*
12G#J)	.	.
.	16dddnJJ)	.
*ped	*	*
(>\12D#L	(>16ccc#LL	.
.	16cccn	.
12G#	.	.
.	16bb	.
12B#X	.	.
.	16aa#JJ	.
12f#	16aaLL	.
.	16gg#	.
12B#	.	.
.	16ggn	.
12G#J)	.	.
*Xped	*	*
.	16ff#XJJ)	.
!!LO:LB:g=original
=34	=34	=34
*ped	*	*
(>12E\L	(>\16eeLL	.
.	16ff#	.
12G#	.	.
.	16ee	.
12c#	.	.
.	16dd#JJ	.
12e	16ee\LL	.
.	16eee^>	.
12c#	.	.
.	16ddd#	.
*Xped	*	*
12G#J)	.	.
.	16dddnJJ)	.
*ped	*	*
(>12F#\L	(>\16ccc#LL	.
.	16cccn	.
12c#	.	.
.	16bb	.
12d#	.	.
.	16aa#XJJ	.
12a	16aa\LL	.
.	16gg#	.
12d#	.	.
.	16ggn	.
*Xped	*	*
12c#J)	.	.
.	16ff#JJ)	[[
=35	=35	=35
8g#\ 8e\ 8c#\ 8G#\	16gg#X\	.
.	16r	.
8r	(>\16ggg#LL	.
!	!	!LO:DY:rj
.	16gggnJJ	f
4r	16fff#\LL	.
.	16eee#	.
.	16eee	]
.	16ddd#JJ	.
*ped	*	*
4a\ 4e\ 4c#\ 4F##\	16dddn\LL	.
.	16ccc#	.
.	16cccn	.
.	.	.
*Xped	*	*
.	16bbJJ	.
4r	16aa#\LL	.
.	16aa	.
.	16gg#X	.
.	16ggnJJ	.
=36	=36	=36
1r	16ff#\LL	.
.	16ee#	.
.	16ee	.
.	16dd#JJ	.
.	16ddn\LL	.
.	16cc#	.
.	16ccn	.
.	16bJJ	.
.	16a#/LL	.
.	16a	.
.	16g#	.
.	16gnJJ	.
.	16f#LL	.
.	16en	.
.	16d#X	.
.	16c#XJJ)	.
!!LO:LB:g=original
=37	=37	=37
*ped	*	*
!	!	!LO:DY:rj
8GG#\ 8GGG#\	8G#<	ff
8r	8r	.
*clefG2	*	*
*	*8va	*
4ee\ 4e\	(>16aaa\LL	.
.	16ggg#	.
.	16eeee	.
.	16eeeJJ)	.
4cc#\ 4c#\	(>16fff#\LL	.
.	16eee	.
.	16cccc#	.
.	16ccc#JJ)	.
4g#\ 4G#\	(>16ddd#\LL	.
.	16ccc#	.
.	16ggg#	.
.	16gg#JJ)	.
*	*X8va	*
*clefF4	*	*
=38	=38	=38
4e\ 4E\	(>16aa\LL	.
.	16gg#	.
.	16eee	.
.	16eeJJ)	.
4c#\ 4C#\	(>16ff#\LL	.
.	16ee	.
.	16ccc#	.
.	16cc#JJ)	.
4G#\ 4GG#\	(>16dd#\LL	.
.	16cc#	.
.	16gg#	.
.	16g#JJ)	.
4E\ 4EE\	(>16a\LL	.
.	16g#	.
.	16ee	.
*Xped	*	*
.	16eJJ)	.
=39	=39	=39
*ped	*	*
4C#\ 4CC#\	(<16f#/LL	.
.	16e	.
.	16cc#	.
.	16c#JJ)	.
4GG#\ 4GGG#\	(<16d#/LL	.
.	16c#	.
.	16g#	.
.	16G#<JJ)	.
4GG#\ 4GGG#\	(<16d#/LL	.
.	16c#	.
.	16g#	.
*Xped	*	*
.	16G#<JJ)	.
*ped	*	*
4AA\ 4AAA\	(<16d#/LL	.
.	16c#	.
.	16a	.
*Xped	*	*
.	16A<JJ)	.
!!LO:LB:g=original
=40	=40	=40
*ped	*	*
4GGG# 4GG#\	(<16d#LL	.
.	16c#	.
.	16g#	.
*Xped	*	*
.	16G#<JJ)	.
!	!LO:TX:i:t=riten. _:dur=3q:ext=ud:problem:text with extention lines	!
*ped	*	*
4FFF## 4FF##X\	(<16d#LL	.
.	16c#	.
.	16f##X	.
*Xped	*	*
.	16F##X<JJ)	.
*ped	*	*
2GGG# 2GG#\	(<16d#LL	.
.	16c#	.
.	16g#	.
*Xped	*	*
.	16G#<JJ)	.
.	(<16d#LL	.
.	16B##X	.
.	16g#	.
.	16G#<JJ)	.
*kcancel	*kcancel	*
=41||	=41||	=41||
*k[b-e-a-d-g-]	*k[b-e-a-d-g-]	*
*ped	*	*
!LO:TX:i:a:t=pesani.	!LO:TX:B:a:t=Largo.	!
(>12DD-\L	1rdd	.
.	.	<
12AA-	.	.
12D-	.	.
12F	.	.
12A-	.	.
12d-J)	.	[
(>12f>L	.	.
12d-	.	>
12A-	.	.
12F	.	.
12D-	.	.
.	.	]
12AA-J)	.	.
=42	=42	=42
(>12DD-\L	1rdd	.
12AA-	.	.
12D-	.	.
12F	.	.
12A-	.	.
12d-J)	.	.
(>12f>L	.	.
12d-	.	.
12A-	.	.
12F	.	.
12D-	.	.
[>12AA-J)	.	.
*Xped	*	*
.	.	.
!!LO:PB:g=original
=43||	=43||	=43||
*ped	*	*
!LO:TX:a:i:t=sotto voce.	!LO:TX:a:B:t=Moderato cantabile.	!
12AA-] 12DD-L	2a-/	.
(>12A-	.	.
12c	.	.
12e-	.	.
12c	.	.
12A-J)	.	.
(>12D-L	(>\8b-TL	.
12A-	.	.
.	8a-	<
12c	.	.
12g-	8dd-	.
12c	.	.
.	8ee-J)	.
*Xped	*	*
12A-J)	.	[
=44	=44	=44
*	*^	*
*ped	*	*	*
(>12D-L	(>2ff	2.	<
12A-	.	.	.
12d-	.	.	.
12f	.	.	.
12d-	.	.	.
*Xped	*	*	*
12A-J)	.	.	.
*ped	*	*	*
(>12D-L	2aa-\)	.	[
12A-	.	.	.
12f>	.	.	.
12a->^<	.	4a-/	.
12f>	.	.	.
*Xped	*	*	*
12A-J)	.	.	.
*	*v	*v	*
=45	=45	=45
*ped	*	*
(>12g-^>L	4gg-\	.
12e-	.	.
*Xped	*	*
12A-J)	.	.
*ped	*	*
(>12f^>L	4ff\	.
12d-	.	.
*Xped	*	*
12A-J)	.	.
*ped	*	*
(>12e-^>L	4ee-\	.
12c	.	.
*Xped	*	*
12A-J)	.	.
*ped	*	*
(>12d-^>L	8.ff\L	>
12A-	.	.
12FJ)	.	.
*Xped	*	*
.	16dd-Jk	]
=46	=46	=46
*ped	*	*
(>12AA-L	2a-/	.
12E-	.	.
12A-	.	.
12c	.	.
12A-	.	.
*Xped	*	*
12E-J)	.	.
*ped	*	*
(>12GG-L	[<2b-^</	.
12G-	.	.
12B-	.	.
12d-	.	.
12B-	.	.
*Xped	*	*
12G-J)	.	.
!!LO:LB:g=original
=47	=47	=47
*ped	*	*
(>12BB-L	2b-/]	.
12F	.	.
12B-	.	.
12dn	.	.
12B-	.	.
*Xped	*	*
12FJ)	.	.
*ped	*	*
(>12BB-L	(>8cc-XTL	.
12B-	.	.
.	8b-	<
12d	.	.
12a-	8ee-	.
12d	.	.
.	8ffJ)	.
*Xped	*	*
12B-J)	.	[
=48	=48	=48
*ped	*	*
(>12E-L	(>4gg-	.
12g-	.	.
*Xped	*	*
12B-J)	.	.
*ped	*	*
(>12FL	4ff	.
12f	.	.
*Xped	*	*
12AnJ)	.	.
*ped	*	*
(>12G-L	4ee-	.
12e-	.	.
*Xped	*	*
12B-J)	.	.
*ped	*	*
(>12A-XL	4ff)	.
12g-	.	.
*Xped	*	*
12cJ)	.	.
=49	=49	=49
*ped	*	*
(>12D-L	2dd-\	.
12A-	.	.
12d-	.	.
12f	.	.
12d-	.	.
*Xped	*	*
12A-J)	.	.
.	(<32qqcc/L	.
.	32qqdd-/	.
.	32qqee-/	.
.	32qqdd-/J	.
*ped	*	*
(>12E-L	4.ff\)	.
12Gn	.	.
12d-	.	.
12e-	.	.
12d-	.	.
.	8ee-\	.
*Xped	*	*
12GnyJ)	.	.
=50	=50	=50
*ped	*	*
(>12AA-L	1ee-^<	.
12E-	.	.
12A-	.	.
12c	.	.
12A-	.	.
*Xped	*	*
12E-J)	.	.
*ped	*	*
!LO:TX:a:i:t=rit.	!	!
(>12AA-L	.	.
12E-	.	.
12G-X	.	.
12B-^>	.	.
12G-	.	.
*Xped	*	*
12E-J)	.	.
!!LO:LB:g=original
=51	=51	=51
*ped	*	*
!	!LO:TX:a:B:t=a tempo.	!
(>12AA-L	2a-/	.
12E-	.	.
12A-	.	.
12c	.	.
12A-	.	.
*Xped	*	*
12E-J)	.	.
*ped	*	*
(>12AA-L	(>\8b-TL	.
12A-	.	.
.	8a-	<
12c	.	.
12g-	8dd-	.
12c	.	.
.	8ee-J)	.
*Xped	*	*
12A-J)	.	[
=52	=52	=52
*	*^	*
*ped	*	*	*
(>12D-L	2ff	2.	.
12A-	.	.	.
12d-	.	.	.
12f	.	.	.
12d-	.	.	.
*Xped	*	*	*
12A-J)	.	.	.
*ped	*	*	*
(>12D-L	2aa-^>\	.	.
12A-	.	.	.
12f>	.	.	.
12a->^<	.	4a-/	.
12f>	.	.	.
*Xped	*	*	*
12A-J)	.	.	.
*	*v	*v	*
=53	=53	=53
*ped	*	*
(>12g-^>L	4gg-\	.
12e-	.	.
*Xped	*	*
12A-J)	.	.
*ped	*	*
(>12f^>L	4ff\	.
12d-	.	.
*Xped	*	*
12A-J)	.	.
*ped	*	*
(>12e-^>L	4ee-\	.
12c	.	.
*Xped	*	*
12A-J)	.	.
*ped	*	*
.	16qqff/L	.
.	16qqee-	.
.	16qqdd-	.
.	16qqee-J	.
(>12d-^>L	8.ff\L	.
12A-	.	.
12FJ)	.	.
*Xped	*	*
.	16dd-Jk	.
=54	=54	=54
*ped	*	*
(>12AA-L	2a-/	.
12E-	.	.
12A-	.	.
12c	.	.
12A-	.	.
*Xped	*	*
12E-J)	.	.
*ped	*	*
(>12GG-L	[<2b-^</	.
12G-	.	.
12B-	.	.
12d-	.	.
12B-	.	.
*Xped	*	*
12G-J)	.	.
!!LO:LB:g=original
=55	=55	=55
*ped	*	*
(>12BB-L	2b-/]	.
12F	.	.
12B-	.	.
12dn	.	.
12B-	.	.
*Xped	*	*
12FJ)	.	.
*ped	*	*
(<12BB-L	(>8cc-XTL	.
*clefG2	*	*
12B-	.	<
.	8b-	.
12dn	.	.
12a-	8ee-	.
12d	.	.
.	8ffJ)	.
*Xped	*	*
12B-J)	.	[
*clefF4	*	*
=56	=56	=56
*ped	*	*
(>12E-L	(>4gg-	.
12g-	.	.
*Xped	*	*
12B-J)	.	.
*ped	*	*
(>12FL	4ff	.
12f	.	.
*Xped	*	*
12AnJ)	.	.
*ped	*	*
(>12G-XL	4ee-	.
12e-	.	.
*Xped	*	*
12B-J)	.	.
*ped	*	*
(>12A-XL	4ff)	.
12g-	.	.
*Xped	*	*
12cJ)	.	.
=57	=57	=57
*ped	*	*
(>12D-L	4.dd-	.
12A-	.	.
12d-	.	.
12f	.	.
12d-	.	.
.	32gnLLL	.
.	32a-	.
*Xped	*	*
12A-J)	.	.
.	32b-	.
.	32a-JJJ	.
*ped	*	*
(>12D-L	4.ff	>
12A-	.	.
12c	.	.
12g-	.	.
12c	.	.
.	8ee-	.
*Xped	*	*
12A-J)	.	]
=58	=58	=58
*ped	*	*
(>12D-L	(>2ee-	.
12A-	.	.
12c	.	.
12g-	.	.
12c	.	.
*Xped	*	*
12A-J)	.	.
*ped	*	*
(>12D-L	4dd-)	.
12A-	.	.
12d-	.	.
12f	8r	.
12d-	.	.
.	(>8aa-\	.
*Xped	*	*
12A-J)	.	.
!!LO:LB:g=original
=59	=59	=59
*ped	*	*
(>12AA-L	2a-/)	sf
12E-	.	.
12A-	.	.
12c	.	.
12A-	.	.
*Xped	*	*
12E-J)	.	.
*ped	*	*
!	!LO:TX:a:t=P:łuk kończy się na kresce taktowej:problem	!
(>12AA-L	(>8.b-TL	.
12E-	.	.
12Gn	.	.
.	16ank	<
12d-	8.b-	.
12Gny	.	.
*Xped	*	*
12E-J)	.	.
.	16ccJk)	[
=60	=60	=60
*	*	*^
*ped	*	*	*
(>12AA-L	8a-X/	.	.
12E-	.	.	.
.	8r	.	.
12A-	.	.	.
12c	[>4ccc	sf	.
12A-	.	.	.
*Xped	*	*	*
12E-J)	.	>	.
!	!LO:TX:a:t=P:note-head-side tuplet number:problem	!	!
*ped	*	*	*
(>12D-L	(>14ccc]L	.	f
.	14bb-	.	.
12A-	.	.	.
.	14aa-	.	.
12d-	.	.	.
.	14ff-	.	.
12f-	.	.	.
.	14dd-	.	.
12d-	.	.	.
.	14.b-	.	.
*Xped	*	*	*
12A-J)	.	.	.
.	(>28aa-Jk)	]	.
*	*	*v	*v
=61	=61	=61
*ped	*	*
(>12EE-L	2e-^/)	.
12E-	.	.
12A-	.	.
12c	.	.
12A-	.	.
*Xped	*	*
12E-J)	.	.
.	8qqcc/	.
*ped	*	*
(>12EE-L	(>8.b-L	.
12E-	.	.
12Gn	.	.
.	16ank	<
12d-	8.b-	.
12Gny	.	.
*Xped	*	*
12E-J)	.	.
.	16ee-Jk)	[
=62	=62	=62
*ped	*	*
(>12AA-L	4a-X/	.
12E-	.	.
12A-	.	.
12c	4r	.
12A-	.	.
*Xped	*	*
12E-J)	.	.
*ped	*	*
!	!	!LO:DY:rj
(>12GG-L	4b-	pp
12G-	.	.
12B-	.	.
*	*Xtuplet	*
12d-	(>12dd-L	>
12B-	12cc	.
*Xped	*	*
12G-J)	12b-J)	]
!!LO:PB:g=original
=63	=63	=63
*ped	*	*
(>12AA-L	2a-/	.
12A-	.	.
12c	.	.
12e-	.	.
12c	.	.
*Xped	*	*
12A-J)	.	.
*ped	*	*
(>12E-L	(>\8b-TL	.
12A-	.	.
.	8a-	<
12c	.	.
12g-	8dd-	.
12c	.	.
.	8ee-J)	.
*Xped	*	*
12A-J)	.	[
=64	=64	=64
*	*^	*
*ped	*	*	*
(>12D-L	2ff	2.	.
12A-	.	.	.
12d-	.	.	.
12f	.	.	.
12d-	.	.	.
*Xped	*	*	*
12A-J)	.	.	.
*ped	*	*	*
(>12D-L	2aa-^>\	.	.
12A-	.	.	.
12f>	.	.	.
12a->^<	.	4a-/	.
12f>	.	.	.
*Xped	*	*	*
12A-J)	.	.	.
*	*v	*v	*
=65	=65	=65
*ped	*	*
(>12g-^>L	4gg-\	.
12e-	.	.
*Xped	*	*
12A-J)	.	.
*ped	*	*
(>12f^>L	4ff\	.
12d-	.	.
*Xped	*	*
12A-J)	.	.
*ped	*	*
(>12e-^>L	4ee-\	.
12c	.	.
*Xped	*	*
12A-J)	.	.
*ped	*	*
.	(<16qqff/L	.
.	16qqee-	.
.	16qqdd-	.
.	16qqee-J)	.
(>12d-^>L	8ff\L	>
12A-	.	.
.	8dd-Jk	.
12FJ)	.	]
*Xped	*	*
.	.	.
=66	=66	=66
*ped	*	*
(>12AA-L	2a-/	.
12E-	.	.
12A-	.	.
12c	.	.
12A-	.	.
*Xped	*	*
12E-J)	.	.
*ped	*	*
(>12GG-L	[>2b-\	sf
12G-	.	.
12B-	.	.
12d-	.	.
12B-	.	.
*Xped	*	*
12G-J)	.	.
!!LO:LB:g=original
=67	=67	=67
*ped	*	*
(>12BB-L	2b-\]	.
12F	.	.
12B-	.	.
12dn	.	.
12B-	.	.
*Xped	*	*
12FJ)	.	.
*ped	*	*
(>12BB-L	(>8cc-XTL	.
12B-	.	.
.	8b-	<
12d	.	.
12a-	8ee-	.
12d	.	.
.	8ffJ)	.
*Xped	*	*
12B-J)	.	[
=68	=68	=68
*ped	*	*
(>12E-L	(>4gg-	.
12g-	.	.
*Xped	*	*
12B-J)	.	.
*ped	*	*
(>12FL	4ff	.
12f	.	.
*Xped	*	*
12AnJ)	.	.
*ped	*	*
(>12G-L	4ee-	.
12e-	.	.
*Xped	*	*
12B-J)	.	.
*ped	*	*
(>12A-XL	4ff)	.
12g-	.	.
*Xped	*	*
12cJ)	.	.
=69	=69	=69
*ped	*	*
(>12D-L	4.dd-	.
12A-	.	.
12d-	.	.
12f	.	.
12d-	.	.
.	32gnLLL	.
.	32a-	.
12A-J)	.	.
*Xped	*	*
.	32b-	.
.	32a-JJJ	.
*ped	*	*
(>12D-L	(>4.ff	>
12A-	.	.
12c	.	.
12g-	.	.
12c	.	.
.	8ee-)	.
*Xped	*	*
12A-J)	.	]
=70	=70	=70
*ped	*	*
(>12D-L	(>2ee-	.
12A-	.	.
12c	.	.
12g-	.	.
12c	.	.
*Xped	*	*
12A-J)	.	.
*ped	*	*
(>12D-L	4dd-)	.
12A-	.	.
12d-	.	.
12f	8r	.
12d-	.	.
.	(>8aa-\	.
*Xped	*	*
12A-J)	.	.
!!LO:LB:g=original
=71	=71	=71
*ped	*	*
(>12AA-L	2a-/)	sf
12E-	.	.
12A-	.	.
12c	.	.
12A-	.	.
*Xped	*	*
12E-J)	.	.
*ped	*	*
(>12AA-L	(>8.b-TL	.
12E-	.	.
12Gn	.	.
.	16ank	.
12d-	8.b-	.
12Gny	.	.
*Xped	*	*
12E-J)	.	.
.	16ccJk)	.
=72	=72	=72
*ped	*	*
(>12AA-L	8a-X/	.
12E-	.	.
.	8r	.
12A-	.	.
12c	[>4ccc	f
12A-	.	.
*Xped	*	*
12E-J)	.	.
*	*tuplet	*
!	!LO:TX:a:t=P:note-head-side tuplet number:problem	!
*ped	*	*
(>12D-L	(>14ccc]L	>
.	14bb-	.
12A-	.	.
.	14aa-	.
12d-	.	.
.	14ff-	.
12f-	.	.
.	14dd-	.
12d-	.	.
.	14.b-	.
*Xped	*	*
12A-J)	.	.
.	(>28aa-Jk)	]
=73	=73	=73
*ped	*	*
(>12EE-L	2e-^/)	.
12E-	.	.
12A-	.	.
12c	.	.
12A-	.	.
*Xped	*	*
12E-J)	.	.
.	8qcc/	.
*ped	*	*
(>12EE-L	(>8.b-L	.
12E-	.	.
12Gn	.	.
.	16ank	.
12d-	8.b-	.
12Gny	.	.
*Xped	*	*
12E-J)	.	.
.	16ee-Jk)	.
=74	=74	=74
*ped	*	*
(>12AA-L	4a-X/	.
12E-	.	.
12A-	.	.
12c	4r	.
12A-	.	.
*Xped	*	*
12E-J)	.	.
*ped	*	*
(>12GG-L	4b-	.
12G-	.	.
12B-	.	.
!	!LO:TX:a:t=P:note-head-side tuplet number:problem	!
12d-	(>12dd-L	>
12B-	12cc	.
*Xped	*	*
12G-J)	12b-J)	]
!!LO:LB:g=original
=75	=75	=75
*ped	*	*
(>12AA-L	2a-/	.
12E-	.	.
12A-	.	.
12c	.	.
12A-	.	.
*Xped	*	*
12E-J)	.	.
*ped	*	*
(>12AA-L	(>\8b-TL	.
12A-	.	.
.	8a-	<
12c	.	.
12g-	8dd-	.
12c	.	.
.	8ee-J)	.
*Xped	*	*
12A-J)	.	[[
=76	=76	=76
*ped	*	*
(>12D-L	2ff\	.
12A-	.	.
12d-	.	.
12f	.	.
12d-	.	.
*Xped	*	*
12A-J)	.	.
*ped	*	*
(>12D-L	2aa-^>\	.
12A-	.	.
12f>	.	.
12a->	.	.
12f>	.	.
*Xped	*	*
12A-J)	.	.
=77	=77	=77
*ped	*	*
(>12g-^>L	4gg-\	.
12e-	.	.
*Xped	*	*
12A-J)	.	.
*ped	*	*
(>12f^>L	4ff\	.
12d-	.	.
*Xped	*	*
12A-J)	.	.
*ped	*	*
(>12e-L	4ee-\	.
12c	.	.
*Xped	*	*
12A-J)	.	.
*ped	*	*
.	16qqff/L	.
.	16qqee-	.
.	16qqdd-	.
.	16qqee-J	.
(>12d-L	8ff\L	.
12A-	.	.
.	8dd-Jk	.
*Xped	*	*
12FJ)	.	.
=78	=78	=78
*ped	*	*
(>12AA-L	2a-/	.
12E-	.	.
12A-	.	.
12c	.	.
12A-	.	.
*Xped	*	*
12E-J)	.	.
*ped	*	*
(>12GG-L	[>2b-^>\	.
12G-	.	.
12B-	.	.
12d-	.	.
12B-	.	.
*Xped	*	*
12G-J)	.	.
!!LO:LB:g=original
=79	=79	=79
*ped	*	*
(>12BB-L	2b-\]	.
12F	.	.
12B-	.	.
12dn	.	.
12B-	.	.
*Xped	*	*
12FJ)	.	.
*ped	*	*
(>12BB-L	(>8cc-XTL	.
12B-	.	<
.	8b-	.
12d	.	.
12a-	8ee-	.
12d	.	.
.	8ffJ)	.
*Xped	*	*
12B-J)	.	[
=80	=80	=80
*ped	*	*
(>12E-L	(>4gg-	>
12g-	.	.
*Xped	*	*
12B-J)	.	.
*ped	*	*
(>12FL	4ff	.
12f	.	.
*Xped	*	*
12AnJ)	.	.
*ped	*	*
(>12G-L	4ee-)	]
12e-	.	.
*Xped	*	*
12B-J)	.	.
*ped	*	*
(>12A-XL	4ff	.
12g-	.	.
*Xped	*	*
12cJ)	.	.
=81	=81	=81
*ped	*	*
(>12D-L	4.dd-	.
12A-	.	.
12d-	.	.
12f	.	.
12d-	.	.
.	(<32gnLLL	.
.	32a-	.
12A-J)	.	.
*Xped	*	*
.	32b-	.
.	32a-JJJ)	.
*ped	*	*
(>12D-L	4.ff	.
12A-	.	.
12c	.	.
12g-	.	.
12c	.	.
.	8ee-	.
*Xped	*	*
12A-J)	.	.
=82	=82	=82
*ped	*	*
!LO:TX:a:i:t=riten.	!	!
(>12D-L	1ee-	.
12A-	.	.
12c	.	.
12g-	.	.
12c	.	.
.	.	.
12A-J)	.	.
(>12D-L	.	.
12A-	.	.
12c	.	.
12g-	.	.
12c	.	.
.	.	.
*Xped	*	*
12A-J)	.	.
!!LO:PB:g=original
=83||	=83||	=83||
*k[f#c#g#d#]	*k[f#c#g#d#]	*
*ped	*	*
!	!LO:TX:a:B:t=Presto.	!
(>12C#L	16r	.
!	!	!LO:DY:rj
.	(>\16g#LL>	p
12G#	.	.
.	16a	.
12c#	.	.
.	16g#JJ	.
12e	16f##X\LL	.
.	16g#	.
12c#	.	.
.	16cc#	.
12G#J)	.	.
.	16eeJJ	.
(>12EL	16dd#\LL	.
.	16cc#	.
12G#	.	.
.	16dd#	.
12c#	.	.
.	16cc#JJ	.
12e	16b#X\LL	.
.	16cc#	.
12c#	.	.
.	16ee	.
*Xped	*	*
12G#J)	.	.
.	16gg#JJ)	.
=84	=84	=84
*ped	*	*
(>12C#L	16r	.
.	(>\16g#LL>	.
12G#	.	.
.	16a	.
12c#	.	.
.	16g#JJ	.
12e	16f##X\LL	.
.	16g#	.
12c#	.	.
.	16cc#	.
12G#J)	.	.
.	16eeJJ	.
*Xtuplet	*	*
(>12EL	16dd#\LL	.
.	16cc#	.
12G#	.	.
.	16dd#	.
12c#	.	.
.	16cc#JJ	.
12e	16b#X\LL	.
.	16cc#	.
12c#	.	.
.	16ee	.
*Xped	*	*
12G#J)	.	.
.	16gg#JJ)	.
=85	=85	=85
*ped	*	*
(>12D#L	16r	.
.	(>\16aLL	<
12A	.	.
.	16cc#	.
12c#	.	.
.	16dd#JJ	.
12f#	16ff#\LL	.
.	16aa	.
12c#	.	.
.	16ccc#	.
12AJ)	.	.
.	16ddd#JJ)	[
*	*8va	*
(>12F#L	16bbb\LL	>
.	16aaa	.
12c#	.	.
.	16ggg#	.
12d#	.	.
.	16fff#JJ	.
12a	16eee\LL	.
.	16ddd#	.
12d#	.	.
.	16fff#	.
12c#J)	.	.
*Xped	*	*
.	16ccc#JJ	]
*	*X8va	*
=86	=86	=86
*ped	*	*
(>12GG#L	(>16bb#X\LL	.
.	16ddd#	.
12D#	.	.
.	16aa	.
12F#	.	.
.	16gg#JJ	.
12B#X	16ff#\LL	>
.	16aa	.
12F#	.	.
.	16ee	.
12D#J)	.	.
.	16dd#JJ	.
(>12GG#L	16ff#\LL	.
.	16cc#	.
12D#	.	.
.	16b#X	.
12F#	.	.
.	16dd#JJ	.
12B#	16a\LL>	.
.	16g#	]
12F#	.	.
.	16bn	.
12D#J)	.	.
*Xped	*	*
.	[<16aJJ)	.
!!LO:LB:g=original
=87	=87	=87
*ped	*	*
(>12C#L	(>16a\LL>]	.
.	16g#	.
12G#	.	.
.	16a	.
12c#	.	.
.	16g#JJ	.
12e	16f##X\LL	.
.	16g#	.
12c#	.	.
.	16cc#	.
12G#J)	.	.
.	16eeJJ	.
(>12EL	16dd#\LL	.
.	16cc#	.
12G#	.	.
.	16dd#	.
12c#	.	.
.	16cc#JJ	.
12e	16b#X\LL	.
.	16cc#	.
12c#	.	.
.	16ee	.
12G#J)	.	.
*Xped	*	*
.	16gg#JJ)	.
=88	=88	=88
*ped	*	*
(>12C#L	16r	.
.	(>16g#\LL>	.
12G#	.	.
.	16a#X	.
12A#X	.	.
.	16g#JJ	.
12e	16f##X\LL	.
.	16g#	.
12A#	.	.
.	16cc#	.
*Xped	*	*
12G#J)	.	.
.	16eeJJ	.
*ped	*	*
(>12EL	16dd#\LL	.
.	16cc#	.
12G#	.	.
.	16dd#	.
12A#	.	.
.	16cc#JJ	.
!	!LO:TX:t=cres. _:problem:dynamics with extention lines 	!
!	!	!LO:HP:i:t=cres.
12c#	16b#X\LL	<
.	16cc#	.
12A#	.	.
.	16ee	.
12G#J)	.	.
*Xped	*	*
.	16gg#JJ)	.
=89	=89	=89
*ped	*	*
(>12D#\L	(>16dd#\LL	.
.	16ee	.
12G#	.	.
.	16dd#	.
12B	.	.
.	16cc##XJJ	.
12d#	16dd#\LL	.
.	16bb	.
12B	.	.
.	16aa#X	.
*Xped	*	*
12G#J)	.	.
.	16gg#JJ)	.
*ped	*	*
(>12D#\L	16ff##X\LL	.
.	(>16eee	.
12A#X	.	.
.	16ddd#	.
12c#	.	.
.	16ccc#JJ	.
12f##X	16bb\LL	.
.	16aa#	.
12c#	.	.
.	16gg#	.
12A#J)	.	.
*Xped	*	*
.	16ff##JJ)	[
!!LO:LB:g=original
=90	=90	=90
*	*	*^
*	*	*	*
*ped	*	*	*
(>12GG#\L	(>16aa#X\LL	.	>
.	16gg#	.	.
12D#	.	.	.
!	!	!LO:HP:i:t=dim.	!
.	16bb	>	.
12G#	.	.	.
.	16cc##XJJ)	.	]
12B	(>16ee\LL	>	.
.	16dd#	.	.
12G#	.	.	.
.	16gg#	.	.
*Xped	*	*	*
12D#J)	.	.	.
.	16a#XJJ)	]	.
*ped	*	*	*
(>12GG#\L	(<16cc#X\LL>	>	.
.	16b	.	.
12D#	.	.	.
.	16dd#	.	.
12G#	.	.	.
.	16f##XJJ)	]	.
12B	(<16a#\LL>	>	.
.	16g#	.	.
12G#	.	.	.
.	16f##	.	.
12D#J)	.	.	.
*Xped	*	*	*
.	16g#JJ)	]	.
*	*	*v	*v
=91	=91	=91
*ped	*	*
(>12AA\L	(>16g#^<\LL	f
.	16gg#	.
12C#	.	.
.	16b#X	.
12F#	.	.
.	16cc#JJ)	.
12A	16f#^<\LL	.
.	16ff#	.
12F#	.	.
.	16b#	.
12C#J)	.	.
.	16cc#JJ	.
(>12AA\L	(>16e#X^<\LL	.
.	16ee#X	.
12C#	.	.
.	16b#	.
12F#	.	.
.	16cc#JJ)	.
12A	(>16f#^<\LL	.
.	16ff#	.
12F#	.	.
.	16b#	.
12C#J)	.	.
*Xped	*	*
.	16cc#JJ)	.
=92	=92	=92
*ped	*	*
(>12BB\L	(<16c#^<\LL>	.
.	16cc#	.
12F#	.	.
.	16f#	.
12A	.	.
.	16aJJ)	.
12B	(<16d#^<\LL>	.
.	16dd#	.
12A	.	.
.	16f#	.
*Xped	*	*
12F#J)	.	.
.	16aJJ)	.
*ped	*	*
(>12EE\L	(<16e^<\LL>	.
.	16ee	.
12BB	.	.
.	16g#	.
12E	.	.
.	16bJJ)	.
12G#	(>16g#^<\LL	.
.	16gg#	.
12E	.	.
.	16b	.
12BBJ)	.	.
*Xped	*	*
.	16eeJJ)	.
!!LO:LB:g=original
=93	=93	=93
*ped	*	*
(>12AA\L	(>16g#^<\LL	.
.	16gg#	.
12C#	.	.
.	16b#X	.
12F#	.	.
.	16cc#JJ)	.
12A	(>16f#^<\LL	.
.	16ff#	.
12F#	.	.
.	16b#	.
12C#J)	.	.
.	16cc#JJ)	.
(>12AA\L	(>16e#X^<\LL	.
.	16ee#X	.
12C#	.	.
.	16b#	.
12F#	.	.
.	16cc#JJ)	.
12A	(>16f#^<\LL	.
.	16ff#	.
12F#	.	.
.	16b#	.
12C#J)	.	.
*Xped	*	*
.	16cc#JJ)	.
=94	=94	=94
*ped	*	*
(>12BB\L	(>16e#X\LL	.
.	16ee#X	.
12D#	.	.
.	16bn	.
12A	.	.
.	16dd#JJ)	.
12B	(>16f#\LL	.
.	16ff#	.
12A	.	.
.	16b	.
*Xped	*	*
12D#J)	.	.
.	16dd#JJ)	.
*ped	*	*
(>12EE\L	(>16a\LL	.
.	16aa	.
12BB	.	.
.	16b	.
12E	.	.
.	16eenyJJ)	.
12G#	(>16g#\LL	.
.	16gg#	.
12E	.	.
.	16b	.
*Xped	*	*
12BBJ)	.	.
.	16eeJJ)	.
=95	=95	=95
*ped	*	*
(>12AA\L	16g#\LL	p
.	16gg#^>	.
12C#	.	.
.	16b#X	.
12F#	.	.
.	16cc#JJ	.
12A	16f#\LL	.
.	16ff#^>	]
12F#	.	.
.	16b#	.
12C#J)	.	.
.	16cc#JJ	.
(>12AA\L	16e#X\LL	.
.	16ee#X^>	.
12C#	.	.
.	16b#	.
12F#	.	.
.	16cc#JJ	.
12A	16f#\LL	.
.	16ff#^>	.
12F#	.	.
.	16b#	.
12C#J)	.	.
*Xped	*	*
.	16cc#JJ	.
!!LO:LB:g=original
=96	=96	=96
*ped	*	*
(>12BB\L	16c#\LL>	.
.	16cc#^>	.
12F#	.	.
.	16f#	.
12A	.	.
.	16aJJ	.
12B	16d#\LL>	.
.	16dd#^>	.
12A	.	.
.	16f#	.
*Xped	*	*
12F#J)	.	.
.	16aJJ	.
*ped	*	*
(>12EE\L	16e\LL	.
.	16ee^>	.
12BB	.	.
!	!LO:TX:t=cresc _:problem:dynamics with extention lines 	!
!	!	!LO:HP:i:t=cresc
.	16g#	<
12E	.	.
.	16bJJ	.
12G#	16g#\LL	.
.	16gg#^>	.
12E	.	.
.	16b	.
*Xped	*	*
12BBJ)	.	.
.	16eeJJ	.
=97	=97	=97
*ped	*	*
(>12AAL	16g#LL	.
.	16gg#^>	.
12C#	.	.
.	16b#X	.
12F#	.	.
.	16cc#JJ	.
12A	16f#LL	.
.	16ff#^>	.
12F#	.	.
.	16b#	.
*Xped	*	*
12C#J)	.	.
.	16cc#JJ	[
*ped	*	*
(>12AAL	16dd#LL	f
.	16ddd#^>	.
12D#	.	.
.	16ff#	.
12F#	.	.
.	16aaJJ	>
12A	16cc#LL	.
.	16ccc#^>	.
12F#	.	.
.	16ff#	.
12D#J)	.	.
*Xped	*	*
.	16aaJJ	]
=98	=98	=98
*ped	*	*
(>12GG#L	16cc#LL	.
.	16ccc#^>	.
12D#	.	.
.	16dd#	.
12F#	.	.
.	16ff#JJ	.
12B#X	16b#XLL	.
.	16bb#X^>	.
12F#	.	.
.	16dd#	.
12D#J)	.	.
.	16ff#JJ	.
(>12GG#L	16b#LL	.
.	16bb#^>	.
12D#	.	.
.	16dd#	.
12F#	.	.
.	16ff#JJ	.
12B#	16b#LL	.
.	16bb#^>	.
12F#	.	.
.	16dd#	.
12D#J)	.	.
*Xped	*	*
.	16ff#JJ	.
!!LO:PB:g=original
=99	=99	=99
*ped	*	*
(>12AAL	16ccnLL	.
.	16cccn^>	.
12D#	.	.
.	16dd#	.
12F#	.	.
.	16ff#JJ	.
12Bn	16bnyLL	.
.	16bb^>	.
12F#	.	.
.	16dd#	.
*Xped	*	*
12D#J)	.	.
.	16ff#JJ	.
*ped	*	*
(>12AA#XL	16bLL	.
.	16bb^>	.
12D#	.	.
.	16dd#	.
12F#	.	.
.	16ff#JJ	.
12A#X	16a#XLL	.
.	16aa#X^>	.
12F#	.	.
.	16dd#	.
12D#J)	.	.
*Xped	*	*
.	16ff#JJ	.
=100	=100	=100
*ped	*	*
(>12BB#X\L	16a#XLL	.
.	16aa#X	.
12D#	.	.
.	16dd#	.
12F#	.	.
.	16ff#JJ	.
12An	16anLL	.
.	16aan	.
12F#	.	.
.	16dd#	.
12D#J)	.	.
.	16ff#JJ	.
(>12BB#\L	16aLL	.
.	16aa	.
12D#	.	.
.	16dd#	.
12F#	.	.
.	16ff#JJ	.
12A	16aLL	.
.	16aa	.
12F#	.	.
.	16dd#	.
12D#J)	.	.
*Xped	*	*
.	16ff#JJ	.
=101	=101	=101
*ped	*	*
(>12AA\L	(>16ccnLL	pp
.	16cccn	.
12D#	.	.
.	16dd#X	.
12F#	.	.
.	16ff#JJ)	.
12Bn	(>16bLL	.
.	16bb	.
12F#	.	.
.	16dd#	.
*Xped	*	*
12D#J)	.	.
.	16ff#JJ)	.
*ped	*	*
(>12AA#X\L	(>16bLL	.
.	16bb	.
12D#	.	.
.	16dd#	.
12F#	.	.
.	16ff#JJ)	.
12A#X	(>16a#XLL	.
.	16aa#X	.
12F#	.	.
.	16dd#	.
12D#J)	.	.
*Xped	*	*
.	16ff#JJ)	.
=102	=102	=102
*ped	*	*
(>12BBny\L	(>16a#XLL	.
.	16aa#X	.
12D#	.	.
.	16dd#	.
12F#	.	.
.	16ff#JJ)	.
12An	(>16anLL	.
.	16aan	.
12F#	.	.
.	16dd#	.
*Xped	*	*
12D#J)	.	.
.	16ff#JJ)	.
*ped	*	*
!	!LO:TX:i:t=riten _:dur=2q:ext=ud:problem:text with extention lines	!
(>12BB#\L	(>16aLL	.
.	16aa	.
12D#	.	.
.	16dd#	.
12F#	.	.
.	16ff#JJ)	.
12G#	(>16g#LL	.
.	16gg#	.
12F#	.	.
.	16dd#	.
12D#J)	.	.
*Xped	*	*
.	16ff#JJ)	.
!!LO:LB:g=original
=103	=103	=103
*ped	*	*
!	!LO:TX:a:B:t=a tempo.	!
(>12C#L	16r	p
.	(>/16g#LL	.
12G#	.	.
.	16a	.
12c#	.	.
.	16g#JJ	.
12e	16f##X\LL	.
.	16g#	.
12c#	.	.
.	16cc#	.
12G#J)	.	.
.	16eeJJ	.
(>12EL	16dd#\LL	.
.	16cc#	.
12G#	.	.
.	16dd#	.
12c#	.	.
.	16cc#JJ	.
12e	16b#X\LL	.
.	16cc#	.
12c#	.	.
.	16ee	.
12G#J)	.	.
.	16gg#JJ)	.
=104	=104	=104
(>12C#L	16r	.
.	(>/16g#LL	.
12G#	.	.
.	16a	.
12c#	.	.
.	16g#JJ	.
12e	16f##X\LL	.
.	16g#	.
12c#	.	.
.	16cc#	.
12G#J)	.	.
.	16eeJJ	.
*Xtuplet	*	*
(>12EL	16dd#\LL	.
.	16cc#	.
12G#	.	.
.	16dd#	.
12c#	.	.
.	16cc#JJ	.
12e	16b#X\LL	.
.	16cc#	.
12c#	.	.
.	16ee	.
*Xped	*	*
12G#J)	.	.
.	16gg#JJ)	.
=105	=105	=105
*ped	*	*
(>12D#L	16r	.
.	(>\16aLL	.
12A	.	.
.	.	<
.	16cc#	.
12c#	.	.
.	16dd#JJ	.
12f#	16ff#\LL	.
.	16aa	.
12c#	.	.
.	16ccc#	.
12AJ)	.	.
.	16ddd#JJ	[
*	*8va	*
(>12F#L	16bbb\LL	>
.	16aaa	.
12c#	.	.
.	.	.
.	16ggg#	.
12d#	.	.
.	16fff#JJ	.
12a	16eee\LL	.
.	16ddd#	.
12d#	.	.
.	16fff#	]
12c#J)	.	.
*Xped	*	*
.	16ccc#JJ)	.
*	*X8va	*
!!LO:LB:g=original
=106	=106	=106
*ped	*	*
(>12GG#L	(>16bb#X\LL	.
.	16ddd#	.
12D#	.	.
.	16aa	.
12F#	.	.
.	16gg#JJ	.
12B#X	16ff#\LL	.
.	16aa	.
12F#	.	.
.	16ee	.
12D#J)	.	.
.	16dd#JJ	.
(>12GG#L	16ff#\LL	.
.	16cc#	.
12D#	.	.
.	16b#X	.
12F#	.	.
.	16dd#JJ	.
12B#	16a/LL	.
.	16g#	.
12F#	.	.
.	16bn	.
12D#J)	.	.
*Xped	*	*
.	[<16aJJ)	.
=107	=107	=107
*ped	*	*
(>12C#L	(>16a/LL]	.
.	16g#	.
12G#	.	.
.	16a	.
12c#	.	.
.	16g#JJ	.
12e	16f##X\LL	.
.	16g#	.
12c#	.	.
.	16cc#	.
*Xped	*	*
12G#J)	.	.
!	!LO:TX:t=cres _:problem:dynamics with extention lines 	!
!	!	!LO:HP:i:t=cres
.	16eeJJ	<
*ped	*	*
(>12EL	16dd#\LL	.
.	16cc#	.
12G#	.	.
.	16dd#	.
12c#	.	.
.	16cc#JJ	.
12e	16b#X\LL	.
.	16cc#	.
12c#	.	.
.	16ee	.
12G#J)	.	.
*Xped	*	*
.	16gg#JJ)	.
=108	=108	=108
*ped	*	*
(>12F#L	(>16eeLL	.
.	16dd#	.
12c#	.	.
.	16ee	.
12d#	.	.
.	16dd#JJ	.
12a	16cc##XLL	.
.	16dd#	.
12d#	.	.
.	16ff#	.
*Xped	*	*
12c#J)	.	.
.	16aaJJ)	.
*ped	*	*
(</12G#L	(>16ff#LL	.
.	16ee#X	.
12c#	.	.
.	16ff#	.
*clefG2	*	*
12e#X	.	.
.	16ee#JJ	.
12b	16dd##XLL	.
.	16ee#	.
12e#	.	.
.	16gg#	.
12c#J)	.	.
*Xped	*	*
.	16ccc#JJ)	.
!!LO:LB:g=original
=109	=109	=109
(</12AL	16r	.
.	(>16cc#LL	.
12c#	.	.
.	16ddn	.
12f#	.	.
.	16cc#JJ	.
12a	16b#XLL	.
.	16cc#	.
12f#	.	.
.	16ff#	.
12c#J)	.	.
.	16aaJJ)	.
(</12G#L	(>16ff#LL	.
.	16ee#X	.
12c#	.	.
.	16ff#	.
12e#X	.	.
.	16ee#JJ	.
12b	16dd##XLL	.
.	16ee#	.
12e#	.	.
.	16gg#	.
12c#J)	.	.
.	16ccc#JJ)	[
=110	=110	=110
!	!LO:TX:i:t=sempre	!
*ped	*	*
(</12AL	(>16gg#LL	.
.	16ff#	.
12c#	.	.
.	16gg#	.
12f#	.	.
.	16ff#JJ	.
12a	16ee#XLL	.
!	!LO:TX:t=cres _:problem:dynamics with extention lines 	!
!	!	!LO:HP:i:t=cres
.	16ff#	<
12f#	.	.
.	16aa	.
12c#J)	.	.
*Xped	*	*
.	16ccc#JJ)	.
*clefF4	*	*
*ped	*	*
(>\12BB#XL	(>16aaLL	.
.	16gg#	.
12F#	.	.
.	16aa	.
12G#	.	.
.	16gg#JJ	.
12d#	16ff##XLL	.
.	16gg#	.
12G#	.	.
.	16bb#X	.
*Xped	*	*
12F#J)	.	.
.	16ddd#JJ)	.
=111	=111	=111
*ped	*	*
(>\12C#L	(>16gg#LL	.
.	16aa	.
12G#	.	.
.	16gg#	.
12c#	.	.
.	16ff##JJ	.
12e	16gg#LL	.
.	16eee^<	.
12c#	.	.
.	16ddd#	.
12G#J)	.	.
*Xped	*	*
.	16dddnJJ)	.
*ped	*	*
(>\12D#L	(>16ccc#LL	.
.	16cccn	.
12G#	.	.
.	16bb	.
12B#X	.	.
.	16aa#JJ	.
12f#	16aaLL	.
.	16gg#	.
12B#	.	.
.	16ggn	.
12G#J)	.	.
*Xped	*	*
.	16ff#JJ)	.
!!LO:LB:g=original
=112	=112	=112
*ped	*	*
(>12E\L	(>\16eeLL	.
.	16ff#	.
12G#	.	.
.	16ee	.
12c#	.	.
.	16dd#JJ	.
12e	16ee\LL	.
.	16eee^<	.
12c#	.	.
.	16ddd#	.
*Xped	*	*
12G#J)	.	.
.	16dddnJJ)	.
*ped	*	*
(>12F#\L	(>\16ccc#LL	.
.	16cccn	.
12c#	.	.
.	16bb	.
12d#	.	.
.	16aa#XJJ	.
12a	16aa\LL	.
.	16gg#	.
12d#	.	.
.	16ggn	.
12c#J)	.	.
*Xped	*	*
.	16ff#JJ)	.
=113	=113	=113
8g#\ 8e\ 8c#\ 8G#\	16gg#X\	[
.	16r	.
8r	(>\16ggg#LL	f
.	16gggnJJ	.
4r	16fff#\LL	.
.	16eee#	.
.	16eee	]
.	16ddd#JJ	.
*ped	*	*
4a\ 4e\ 4c#\ 4F##\	16dddn\LL	.
.	16ccc#	.
.	16cccn	.
*Xped	*	*
.	16bbJJ	.
4r	16aa#\LL	.
.	16aa	.
.	16gg#X	.
.	16ggnJJ)	.
=114	=114	=114
1r	(>16ff#\LL	.
.	16ee#	.
.	16ee	.
.	16dd#JJ	.
.	16ddn\LL	.
.	16cc#	.
.	16ccn	.
.	16bJJ	.
.	16a#/LL	.
.	16a	.
.	16g#	.
.	16gnJJ	.
.	16f#LL	.
.	16e	.
.	16d#	.
.	16c#JJ)	.
!!LO:PB:g=original
=115	=115	=115
*ped	*	*
!	!	!LO:DY:rj
8GG#\ 8GGG#\	8G#<	ff
8r	8r	.
*clefG2	*	*
*	*8va	*
4ee/ 4e/	(>16aaa\LL	.
.	16ggg#	.
.	16eeee	.
.	16eeeJJ)	.
4cc#/ 4c#/	(>16fff#\LL	.
.	16eee	.
.	16cccc#	.
.	16ccc#JJ)	.
4g#/ 4G#/	(>16ddd#\LL	.
.	16ccc#	.
.	16ggg#	.
.	16gg#JJ)	.
*	*X8va	*
*clefF4	*	*
=116	=116	=116
4e\ 4E\	(>16aa\LL	.
.	16gg#	.
.	16eee	.
.	16eeJJ)	.
4c#\ 4C#\	(>16ff#\LL	.
.	16ee	.
.	16ccc#	.
.	16cc#JJ)	.
4G#\ 4GG#\	(>16dd#\LL	.
.	16cc#	.
.	16gg#	.
.	16g#JJ)	.
4E\ 4EE\	(>16a\LL	.
.	16g#	.
.	16ee	.
*Xped	*	*
.	16eJJ)	.
=117	=117	=117
*ped	*	*
4C#\ 4CC#\	(<16f#/LL	.
.	16e	.
.	16cc#	.
.	16c#JJ)	.
4GG#\ 4GGG#\	(<16d#/LL	.
.	16c#	.
.	16g#	.
.	16G#<JJ)	.
4GG#\ 4GGG#\	(<16d#/LL	.
.	16c#	.
.	16g#	.
*Xped	*	*
.	16G#<JJ)	.
*ped	*	*
4AA\ 4AAA\	(<16d#/LL	.
.	16c#	.
.	16a	.
*Xped	*	*
.	16A<JJ)	.
!!LO:LB:g=original
=118	=118	=118
4GG#\ 4GGG#	16d#LL	.
.	16c#	.
.	16g#	.
.	16G#<JJ	.
4FF##X\ 4FFF##	16d#LL	.
.	16c#	.
.	16f##X	.
.	16F##X<JJ	.
2GG#\ 2GGG#	16d#LL	.
.	16c#	.
.	16g#	.
.	16G#<JJ	.
.	16d#LL	.
.	16B#X	.
.	16g#	.
.	16G#<JJ	.
=119	=119	=119
!	!LO:TX:i:t=sempre	!
*ped	*	*
(<8CC#/L	16d#/LL	.
.	16c#	.
8E	16g#	.
.	16G#JJ	.
8C#	(<16a/LL	.
.	16g#	ff
*Xped	*	*
8GG#J)	16ee^>	.
.	16eJJ)	.
*ped	*	*
(<8CC#/L	(<16a/LL	.
.	16g#	.
8F#	16ee^>	.
.	16eJJ)	.
8BB#	(<16a/LL	.
.	16g#	.
*Xped	*	*
8GG#J)	16dd#^>	.
.	16d#JJ)	.
=120	=120	=120
*ped	*	*
(<8CC#/L	(<16aLL	.
.	16g#	.
8E	16dd#^>	.
.	16d#JJ)	.
8C#	(<16aLL	.
.	16g#	.
*Xped	*	*
8GG#J)	16cc#^>	.
.	16c#JJ)	.
*ped	*	*
(<8CC#/L	(<16eLL	p
.	16d#	.
8F#	16g#^>	.
.	16G#JJ)	.
8BB#	(<16eLL	.
.	16d#	.
8GG#J)	16g#^>	.
*Xped	*	*
.	16G#JJ)	.
!!LO:LB:g=original
=121	=121	=121
*ped	*	*
(<8CC#/L	(<16d#/LL	ff
.	16c#	.
8E	16g#^>	.
.	16G#JJ)	.
8C#	(<16a/LL	.
.	16g#	.
*Xped	*	*
8GG#J)	16ee^>	.
.	16eJJ)	.
*ped	*	*
(<8CC#/L	(<16a/LL	.
.	16g#	.
8F#	16ee^>	.
.	16eJJ)	.
8BB#	(<16a/LL	.
.	16g#	.
*Xped	*	*
8GG#J)	16dd#^>	.
.	16d#JJ)	.
=122	=122	=122
*ped	*	*
(<8CC#/L	(<16aLL	.
.	16g#	.
8E	16dd#^>	.
.	16d#JJ)	.
8C#	(<16aLL	.
.	16g#	.
*Xped	*	*
8GG#J)	16cc#^>	.
.	16c#JJ)	.
*ped	*	*
(<8CC#/L	(<16eLL	p
.	16d#	.
8F#	16g#^>	.
.	16G#JJ)	.
8BB#	(<16eLL	.
.	16d#	.
8GG#J)	16g#^>	.
*Xped	*	*
.	.	.
.	16G#JJ)	.
=123	=123	=123
*ped	*	*
(<8CC#/L	(<16d#/LL	ff
.	16c#	.
8E	16g#^>	.
.	16G#JJ)	.
8C#	(<16a/LL	.
.	16g#	.
*Xped	*	*
8GG#J)	16ee^>	.
.	16eJJ)	.
*ped	*	*
(<8CC#/L	(<16f#/LL	.
.	16e	.
8G#	16cc#^>	.
.	16c#JJ)	.
8C#	(<16a/LL	.
.	16g#	.
8GG#J)	16ee^>	.
*Xped	*	*
.	16eJJ)	.
!!LO:LB:g=original
=124	=124	=124
*ped	*	*
(<8CC#/L	(<16d#/LL>	.
.	16c#	.
8E	16g#^>	.
.	16G#JJ)	.
8C#	(<16a/LL	.
.	16g#	.
8GG#J)	16ee^>	.
.	16eJJ)	.
(<8CC#/L	(<16f#/LL>	.
.	16e	.
8G#	16cc#^>	.
.	16c#JJ)	.
8C#	(<16a/LL	.
.	16g#	.
8GG#J)	16ee^>	.
*Xped	*	*
.	16eJJ)	.
=125	=125	=125
!	!LO:TX:i:t=poco\ a\ poco:dur=4q:ext=s:problem:text with extention lines	!
*ped	*	*
8(<8CC#/L	(<16f#LL	.
.	16e	.
8E	16cc#	.
.	16c#JJ)	.
8C#	(<16aLL	.
.	16g#	.
8GG#J)	16cc#	.
.	16c#JJ)	.
8(<8CC#/L	(<16f#LL	.
.	16e	.
8E	16cc#	.
.	16c#JJ)	.
8C#	(<16aLL	.
.	16g#	.
8GG#J)	16cc#	.
.	16c#JJ)	.
=126	=126	=126
!	!LO:TX:i:t=dimi-nu-en-do.:dur=4q3s:ext=ud:problem:text with extention lines	!
8(<8CC#/L	(<16f#LL	.
.	16e	.
8E	16cc#	.
.	16c#JJ)	.
8C#	(<16aLL	.
.	16g#	.
8GG#J)	16cc#	.
.	16c#JJ)	.
8(<8CC#/L	(<16f#LL	.
.	16e	.
8E	16cc#	.
.	16c#JJ)	.
8C#	(<16aLL	.
.	16g#	.
8GG#J)	16cc#	.
*Xped	*	*
.	16c#JJ)	.
!!LO:PB:g=original
=127	=127	=127
4CC#	(<16d#LL	.
.	16c#	.
.	16g#	.
.	16G#JJ)	.
4r	(<16d#LL	.
.	16c#	.
.	16g#	.
.	16G#JJ)	.
2r	(<16d#LL	p
.	16c#	.
.	16g#	.
.	16G#JJ)	.
.	(<16d#LL	.
.	16c#	.
.	16g#	.
.	16G#JJ)	.
=128	=128	=128
1rF	(16d#LL	.
.	16c#	.
.	16g#	.
.	16G#JJ)	.
.	(16d#LL	.
.	16c#	.
.	16g#	.
.	16G#JJ)	.
.	(16d#LL	.
.	16c#	.
.	16g#	.
.	16G#JJ)	.
.	(16d#LL	.
.	16c#	.
.	16g#	.
.	16G#JJ)	.
=129	=129	=129
*ped	*	*
1GG#^> 1CC#	(16d#LL	pp
.	16c#	.
.	16g#	.
.	16G#JJ)	.
.	(16d#LL	.
!	!LO:TX:i:t=il canto marcato.	!
.	16c#	.
.	16g#	.
.	16G#JJ)	.
.	(16d#LL	.
.	16c#	.
.	16g#	.
.	16G#JJ)	.
.	(16d#LL	.
.	16c#	.
.	16g#	.
*Xped	*	*
.	16G#JJ)	.
!!LO:LB:g=original
=130	=130	=130
(</4AA#X	(<16d#LL	.
.	16c#	.
.	16g#	.
.	16G#JJ)	.
!	!	!LO:HP:b=2
4GG#/	(<16d#LL	<
.	16c#	.
.	16g#	.
.	16G#JJ)	.
4C#/	(<16d#LL	.
.	16c#	.
.	16g#	.
.	16G#JJ)	.
4D#/)	(<16d#LL	[
.	16c#	.
.	16g#	.
.	16G#JJ)	.
=131	=131	=131
1E#X	(<16d#LL	.
.	16c#	.
.	16g#	.
.	16G#JJ)	.
.	(<16d#LL	.
.	16c#	.
.	16g#	.
.	16G#JJ)	.
.	(<16d#LL	.
.	16c#	.
.	16g#	.
.	16G#JJ)	.
.	(<16d#LL	.
.	16c#	.
.	16g#	.
.	16G#JJ)	.
=132	=132	=132
*ped	*	*
1G#^	(<16d#LL	.
.	16c#	.
.	16g#	.
.	16G#JJ)	.
.	(<16d#LL	.
.	16c#	.
.	16g#	.
.	16G#JJ)	.
.	(<16d#LL	.
.	16c#	.
.	16g#	.
.	16G#JJ)	.
.	(<16d#LL	.
.	16c#	.
.	16g#	.
*Xped	*	*
.	16G#JJ)	.
!!LO:LB:g=original
=133	=133	=133
(>2F#	(<16d#LL	.
.	16c#	.
.	16g#	.
.	16G#JJ)	.
.	(<16d#LL	.
.	16c#	.
.	16g#	.
.	16G#JJ)	.
2E#X)	(<16d#LL	.
.	16c#	.
.	16g#	.
.	16G#JJ)	.
.	(<16d#LL	.
.	16c#	.
.	16g#	.
.	16G#JJ)	.
=134	=134	=134
2D#	(<16d#LL	.
.	16c#	.
.	16g#	.
.	16G#JJ)	.
.	(<16d#LL	.
.	16c#	.
.	16g#	.
.	16G#JJ)	.
(>4E#X	(<16d#LL	.
.	16c#	.
.	16g#	.
.	16G#JJ)	.
4C#/)	(<16d#LL	.
.	16c#	.
.	16g#	.
.	16G#JJ)	.
=135	=135	=135
*ped	*	*
1GG#	(<16d#LL	.
.	16c#	.
.	16g#	.
.	16E#JJ)	.
.	(<16d#LL	.
.	16c#	.
.	16g#	.
.	16E#JJ)	.
.	(<16d#LL	.
.	16c#	.
.	16g#	.
.	16E#JJ)	.
.	(<16d#LL	.
.	16c#	.
.	16g#	.
*Xped	*	*
.	16E#JJ)	.
!!LO:LB:g=original
=136	=136	=136
*ped	*	*
1GG# 1GGG#	(<16e#XLL	.
.	16d#	.
!	!LO:TX:i:t=riten _:dur=3qs:ext=ud:problem:text with extention lines	!
.	16g#	.
.	16F#<JJ)	.
.	16e#LL	.
.	16d#	.
.	16g#	.
.	16F#<JJ	.
.	16e#LL	.
.	16d#	.
.	16g#	.
.	16F#<JJ	.
.	16e#LL	.
.	16d#	.
.	16g#	.
*Xped	*	*
.	16F#<JJ	.
=137	=137	=137
*ped	*	*
.	.	.
!	!	!LO:DY:rj
1B#X:: [>1G#:: 1F#:: 1GG#:: 1CC#::	1d#::	ppp
*Xped	*	*
.	.	.
=138	=138	=138
*ped	*	*
.	.	.
1G#::] 1E#X:: 1GG#:: 1CC#::	1c#::	.
*Xped	*	*
.	.	.
==	==	==
*-	*-	*-
!!!system-decoration: {(s1,s2)}
!!title: @{OTL}; @{OPS} @{ONM} publisher: @{PPR}
!!!RDF**kern: > = above
!!!RDF**kern: < = below
!!!RDF**kern: N = linked
!!!RDF**dynam: > = "dim.", fontstyle = "italic"
!!!RDF**dynam: < = "cres.", fontstyle = "italic"
!!!RDF**kern: i = editorial accidental
!!!ENC: Mateusz Mrugas
!!!END: 2019-10-25
!!!EED: Jędrzej Mróz
!!!EST: revision finished 2019-10-29
!!!rism-genre: Fantaisie-Impromptu
!!!rism-key: C-sharp minor
!!!rism-opus: op.  66
!!!rism-title: Fantaisie-Impromptu in C-sharp minor op.  66
!!!rism-permalink: https://opac.rism.info/search?id=1001015050&View=rism
